X: 1
T: The Garden Of Daisies
R: hornpipe
M: 4/4
L: 1/8
K: Dmaj
fg|:a2 af gbag|fdfa gfec|dcde fdec|dedc AGFG|
AB=cA d=cAG|FEFG ABcA|dcdf edce|1 d2 dc d4:|2 d2 dc d3 A||
dcde fdfg|abaf defg|abaf gbag|fefa gfec|dcde fdec|
dedc A2 fg|abaf gbag|fefa gfec|dcde fdec|dedc AGFG|
AB=cA d^cAG|FEFG ABcA|d^cdf ed^ce|1 d2 dc d3 A:|2 d2 dc d4||


Tune 5080	Setting 17397

